X: 346
T:Belle pour l'amour de vous
N: Derived from Jos2805-Belle_pour_lamour_de_vous.krn
C: Josquin des Prez
%%abc-version 2.0
%%abcx-abcm2ps-target-version 5.9.1 (29 Sep 2008)
%%abc-creator hum2abc beta
%%abcx-conversion-date 2019/02/12 16:15:54
%%abc-edited-by Jesse Rodin
%%abc-edited-by Jesse Rodin; Victoria Chang 2011/07/27
%%abcx-initial-encoding-date 2011/07/27/
%%humdrum-veritas 1646624703
%%humdrum-veritas-data 2277311107
%%linebreak <none>
%%barnumbers 0
L: 1/4
M: 2/1
Q: 1/2=120
%%staves [1 2 3 4]
V: 1 clef=treble
V: 2 clef=treble-8
V: 3 clef=treble-8
V: 4 clef=bass
K: F
[V:1] z8 | 
[V:2] A6G2 | 
[V:3] z8 | 
[V:4] z8 | 
[V:1] A6G2 | 
[V:2] F3E/D/F2E2- | 
[V:3] z8 | 
[V:4] z8 | 
[V:1] F4E4 | 
[V:2] EDd4c2 | 
[V:3] z8 | 
[V:4] z8 | 
[V:1] D2E4DC | 
[V:2] =B2G2A4 | 
[V:3] z8 | 
[V:4] z8 | 
[V:1] =B,3A,B,A,A2- | 
[V:2] GA=Bcd2e2- | 
[V:3] d6c2 | 
[V:4] z8 | 
[V:1] A2G2A2c2 | 
[V:2] e2d2f2e2- | 
[V:3] =B4A4 | 
[V:4] z8 | 
[V:1] =B2c4BA | 
[V:2] edc=BA4 | 
[V:3] G2A4GF | 
[V:4] z8 | 
[V:1] G4z4 | 
[V:2] =B2c4=BA | 
[V:3] E8 | 
[V:4] G,6F,2 | 
[V:1] G4F4 | 
[V:2] =B2c4=B2 | 
[V:3] z8 | 
[V:4] E,4D,4 | 
[V:1] E2F4ED | 
[V:2] c2A4G2 | 
[V:3] z8 | 
[V:4] C,2D,4C,B,, | 
[V:1] C3DEFE2- | 
[V:2] A8 | 
[V:3] z4E4- | 
[V:4] A,,8 | 
[V:1] E2DC=B,A,B,A, | 
[V:2] z8 | 
[V:3] E2F2G4 | 
[V:4] z8 | 
[V:1] CDEFG2A2 | 
[V:2] z8 | 
[V:3] A4=B2c2- | 
[V:4] z8 | 
[V:1] E2A4^G2 | 
[V:2] z4d3e | 
[V:3] c2=BA=B4 | 
[V:4] z8 | 
[V:1] A8 | 
[V:2] f2e3dc=B | 
[V:3] A8 | 
[V:4] z4A,,4- | 
[V:1] z8 | 
[V:2] A2G4FE | 
[V:3] z8 | 
[V:4] A,,2B,,2C,4 | 
[V:1] z8 | 
[V:2] DEFGE2D2- | 
[V:3] z8 | 
[V:4] D,4E,2F,2- | 
[V:1] z8 | 
[V:2] D2d4^c2 | 
[V:3] z8 | 
[V:4] F,2E,D,E,4 | 
[V:1] A6G2 | 
[V:2] d2f4e2 | 
[V:3] z8 | 
[V:4] D,8 | 
[V:1] F4E4 | 
[V:2] d4c4 | 
[V:3] z8 | 
[V:4] z8 | 
[V:1] D2E4DC | 
[V:2] =B2G2A4 | 
[V:3] z8 | 
[V:4] z8 | 
[V:1] =B,3CD2E2- | 
[V:2] G8 | 
[V:3] d6c2 | 
[V:4] z8 | 
[V:1] EDG3FF2- | 
[V:2] z8 | 
[V:3] =B4A4 | 
[V:4] z8 | 
[V:1] FEE3CD2 | 
[V:2] z8 | 
[V:3] G2A4GF | 
[V:4] z8 | 
[V:1] E8 | 
[V:2] z2e4d2 | 
[V:3] E8 | 
[V:4] G,6F,2 | 
[V:1] z8 | 
[V:2] c2=B3AGF | 
[V:3] z8 | 
[V:4] E,4D,4 | 
[V:1] z4D4 | 
[V:2] E2A4G2 | 
[V:3] z8 | 
[V:4] C,2D,4C,B,, | 
[V:1] C2E4DC | 
[V:2] A4e4- | 
[V:3] E6F2 | 
[V:4] A,,8 | 
[V:1] =B,4A,4 | 
[V:2] e4d4 | 
[V:3] G4A4 | 
[V:4] E,4F,4 | 
[V:1] z4A,4 | 
[V:2] e4c4 | 
[V:3] =B2c3=BAG | 
[V:4] E,4F,4- | 
[V:1] C4D2E2- | 
[V:2] A2c2=B2A2- | 
[V:3] A3GF2E2 | 
[V:4] F,2E,2D,2C,2 | 
[V:1] EFD4^C2 | 
[V:2] A2G2A4 | 
[V:3] D4E4 | 
[V:4] B,,4A,,4 | 
[V:1] D2E2F2G2- | 
[V:2] F2c2A2c2 | 
[V:3] D2G2F2E2 | 
[V:4] D,2C,2D,2C,2 | 
[V:1] GFEDC2G2 | 
[V:2] =B2A4G2 | 
[V:3] D4E4 | 
[V:4] D,4A,,2E,2 | 
[V:1] F2E2D2E2- | 
[V:2] A2c2=B2A2- | 
[V:3] D2G2F2E2 | 
[V:4] F,2C,2D,2C,2 | 
[V:1] EFD4^C2 | 
[V:2] A2G2A4- | 
[V:3] D4E4 | 
[V:4] B,,4A,,4 | 
[V:1] D8- | 
[V:2] A2F2B3A | 
[V:3] D8- | 
[V:4] D,8- | 
[V:1] D8 |]  
[V:2] A8 |]  
[V:3] D8 |]  
[V:4] D,8 |]  



